**kern	**kern	**kern	**kern
*MM60	*MM60	*MM60	*MM60
*k[b-]	*k[b-]	*k[b-]	*k[b-]
*M4/4	*M4/4	*M4/4	*M4/4
*tb32	*tb32	*tb32	*tb32
=1	=1	=1	=1
1r	2r	1r	1r
.	16r	.	.
.	16a	.	.
.	16g	.	.
.	16a	.	.
.	16f	.	.
.	16a	.	.
.	16e	.	.
.	16a	.	.
=2	=2	=2	=2
1r	16d	1r	1r
.	16a	.	.
.	16c#	.	.
.	16a	.	.
.	16d	.	.
.	16a	.	.
.	16e	.	.
.	16a	.	.
.	16f	.	.
.	16a	.	.
.	16A	.	.
.	16a	.	.
.	16B	.	.
.	16a	.	.
.	16c#	.	.
.	16a	.	.
=3	=3	=3	=3
1r	16d	2r	1r
.	16a	.	.
.	16c#	.	.
.	16a	.	.
.	16d	.	.
.	16a	.	.
.	16e	.	.
.	16a	.	.
.	8f	16r	.
.	.	16dd	.
.	8f#	16cc	.
.	.	16dd	.
.	8g	16b-	.
.	.	16dd	.
.	8c	16a	.
.	.	16dd	.
=4	=4	=4	=4
1r	8B-	16g	1r
.	.	16dd	.
.	8A	16f#	.
.	.	16dd	.
.	8B-	16g	.
.	.	16dd	.
.	8c	16a	.
.	.	16dd	.
.	8d	16b-	.
.	.	16dd	.
.	8F#	16d	.
.	.	16dd	.
.	8G	16e	.
.	.	16dd	.
.	8A	16f#	.
.	.	16dd	.
=5	=5	=5	=5
1r	8B-	16g	1r
.	.	16dd	.
.	8A	16f#	.
.	.	16dd	.
.	8B-	16g	.
.	.	16dd	.
.	8F#	16a	.
.	.	16dd	.
.	16G	8b-	.
.	16g	.	.
.	16G	8dd	.
.	16g	.	.
.	16d	8b-	.
.	16g	.	.
.	16d	8dd	.
.	16g	.	.
=6	=6	=6	=6
1r	16c	8ee-	1r
.	16e-	.	.
.	16c	8g	.
.	16e-	.	.
.	16c	8ee-	.
.	16e-	.	.
.	16c	8g	.
.	16e-	.	.
.	16c	8cc	.
.	16f	.	.
.	16c	8a	.
.	16f	.	.
.	16c	8cc	.
.	16f	.	.
.	16c	8a	.
.	16f	.	.
=7	=7	=7	=7
1r	16B-	8dd	1r
.	16d	.	.
.	16B-	8f	.
.	16d	.	.
.	16B-	8dd	.
.	16d	.	.
.	16B-	8f	.
.	16d	.	.
.	16B-	8b-	.
.	16e	.	.
.	16B-	8g	.
.	16e	.	.
.	16B-	8b-	.
.	16e	.	.
.	16B-	8g	.
.	16e	.	.
=8	=8	=8	=8
1r	16A	8cc#	1r
.	16c#	.	.
.	16A	8e	.
.	16c#	.	.
.	16A	8cc#	.
.	16c#	.	.
.	16A	8e	.
.	16c#	.	.
.	16F	8a	.
.	16d	.	.
.	16F	8f	.
.	16d	.	.
.	16F	8a	.
.	16d	.	.
.	16F	8f	.
.	16d	.	.
=9	=9	=9	=9
1r	16E	8g	1r
.	16B-	.	.
.	16E	8c#	.
.	16B-	.	.
.	16E	8g	.
.	16B-	.	.
.	16E	8c#	.
.	16B-	.	.
.	16D	8f	.
.	16A	.	.
.	16D	8d	.
.	16A	.	.
.	16D	8f	.
.	16A	.	.
.	16D	8d	.
.	16A	.	.
=10	=10	=10	=10
1r	16E	8e	2r
.	16G	.	.
.	16E	8B-	.
.	16G	.	.
.	16E	8e	.
.	16G	.	.
.	16E	8B-	.
.	16G	.	.
.	8F	8A	16r
.	.	.	16aa
.	8E	8A	16gg
.	.	.	16aa
.	8D	8A	16ff
.	.	.	16aa
.	8G	8A	16ee
.	.	.	16aa
=11	=11	=11	=11
1r	8F	8A	16dd
.	.	.	16aa
.	8E	8A	16cc#
.	.	.	16aa
.	8F	8A	16dd
.	.	.	16aa
.	8C#	8A	16ee
.	.	.	16aa
.	8D	8A	16ff
.	.	.	16aa
.	8C#	8A	16a
.	.	.	16aa
.	8D	8A	16b
.	.	.	16aa
.	8E	8A	16cc#
.	.	.	16aa
=12	=12	=12	=12
1r	8F	8A	16dd
.	.	.	16aa
.	8E	8A	16cc#
.	.	.	16aa
.	8F	8A	16dd
.	.	.	16aa
.	8C#	8A	16ee
.	.	.	16aa
.	4D	4A	16ff
.	.	.	16aa
.	.	.	16ee
.	.	.	16aa
.	4F	4dd	16dd
.	.	.	16aa
.	.	.	16cc
.	.	.	16aa
=13	=13	=13	=13
1r	4G	4dd	16b-
.	.	.	16aa
.	.	.	16cc
.	.	.	16aa
.	4r	4r	16dd
.	.	.	16gg
.	.	.	16b-
.	.	.	16gg
.	4C	4cc	16ee
.	.	.	16gg
.	.	.	16dd
.	.	.	16gg
.	4E	4cc	16cc
.	.	.	16gg
.	.	.	16b-
.	.	.	16gg
=14	=14	=14	=14
1r	4F	4cc	16a
.	.	.	16gg
.	.	.	16b-
.	.	.	16gg
.	4r	4r	16cc
.	.	.	16ff
.	.	.	16a
.	.	.	16ff
.	4BB-	4b-	16dd
.	.	.	16ff
.	.	.	16cc
.	.	.	16ff
.	4D	4b-	16b-
.	.	.	16ff
.	.	.	16a
.	.	.	16ff
=15	=15	=15	=15
1r	4E	4b-	16g
.	.	.	16ff
.	.	.	16a
.	.	.	16ff
.	4r	4r	16b-
.	.	.	16ee
.	.	.	16g
.	.	.	16ee
.	4AA	4a	16cc#
.	.	.	16ee
.	.	.	16b-
.	.	.	16ee
.	4C#	4a	16a
.	.	.	16ee
.	.	.	16g
.	.	.	16ee
=16	=16	=16	=16
1r	4D	4a	16f
.	.	.	16ee
.	.	.	16g
.	.	.	16ee
.	8r	8r	16a
.	.	.	16dd
.	8F	8dd	16f
.	.	.	16dd
.	8B-	8cc#	16e
.	.	.	16ee
.	8B-	8cc#	16e
.	.	.	16ee
.	8A	8dd	16f
.	.	.	16dd
.	8A	8dd	16f
.	.	.	16dd
=17	=17	=17	=17
1r	4G	4e	16b-
.	.	.	16cc#
.	.	.	16b-
.	.	.	16cc#
.	8r	8r	16a
.	.	.	16dd
.	8A	8d	16f
.	.	.	16dd
.	8B-	8c#	16e
.	.	.	16ee
.	8B-	8c#	16e
.	.	.	16ee
.	8A	8d	16f
.	.	.	16dd
.	8A	8d	16f
.	.	.	16dd
=18	=18	=18	=18
1r	4G#	4e	16r
.	.	.	16dd
.	.	.	16cc#
.	.	.	16dd
.	4r	4r	16b
.	.	.	16dd
.	.	.	16cc#
.	.	.	16b
.	2r	16r	4cc#
.	.	16a	.
.	.	16g	.
.	.	16a	.
.	.	16e	4r
.	.	16g	.
.	.	16f	.
.	.	16e	.
=19	=19	=19	=19
1r	1r	4f	16r
.	.	.	16dd
.	.	.	16cc#
.	.	.	16dd
.	.	4d	16ff
.	.	.	16dd
.	.	.	16cc#
.	.	.	16b
.	.	16A	4cc#
.	.	16a	.
.	.	16g	.
.	.	16a	.
.	.	16c#	[4ee
.	.	16g	.
.	.	16f	.
.	.	16e	.
=20	=20	=20	=20
1r	16r	4f	8ee]
.	16d	.	.
.	16c#	.	[8dd
.	16d	.	.
.	16A	4e	8dd]
.	16A	.	.
.	16G	.	8cc#
.	16A	.	.
.	16F#	8d	4cc
.	16d	.	.
.	16c#	[8a	.
.	16d	.	.
.	16G	8a]	4b-
.	16f	.	.
.	16e-	[8g	.
.	16d	.	.
=21	=21	=21	=21
1r	16c#	4g]	4a
.	16e	.	.
.	16A	.	.
.	16c#	.	.
.	16D	4f#	4a
.	16e-	.	.
.	16d	.	.
.	16c	.	.
.	16B	4f	4g
.	16d	.	.
.	16G	.	.
.	16B	.	.
.	16C	[4e-	4g
.	16d	.	.
.	16c	.	.
.	16B-	.	.
=22	=22	=22	=22
1r	16A	8e-]	8f#
.	16c	.	.
.	16F#	8d	4a
.	16A	.	.
.	16D	8f#	.
.	16c	.	.
.	16B-	[8c	8ee-
.	16A	.	.
.	16B-	8c]	4dd
.	16a	.	.
.	16g	16B-	.
.	16f#	16A	.
.	16g	8B-	8r
.	16B-	.	.
.	16A	8B-	[8gg
.	16G	.	.
=23	=23	=23	=23
16r	4d	4A	8gg]
16D	.	.	.
16C	.	.	8ff#
16D	.	.	.
16BB-	8r	8d	4gg
16D	.	.	.
16AA	8d	8c	.
16D	.	.	.
16GG	8d	8B-	8b-
16D	.	.	.
16FF#	8d	8A	8dd
16D	.	.	.
16GG	8d	8B-	8dd
16D	.	.	.
16AA	8c	8F#	8dd
16D	.	.	.
=24	=24	=24	=24
16BB-	8B-	8G	8dd
16D	.	.	.
16DD	8d	8F#	8dd
16D	.	.	.
16EE	8d	8G	8dd
16D	.	.	.
16FF#	8c	8A	8dd
16D	.	.	.
16GG	8B-	8B-	8dd
16D	.	.	.
16FF#	8d	8A	8dd
16D	.	.	.
16GG	8d	8B-	8dd
16D	.	.	.
16AA	8c	8F#	8dd
16D	.	.	.
=25	=25	=25	=25
4BB-	4B-	16G	16dd
.	.	16B-	16gg
.	.	16A	16ff
.	.	16B-	16gg
8r	4r	16G	16ee
.	.	16A	16ff
8BB	.	16F	16dd
.	.	16G	16ee
4C	2r	16E	16cc
.	.	16c	16aa
.	.	16B-	16gg
.	.	16c	16aa
8r	.	16A	16ff
.	.	16B-	16gg
8C#	.	16G	16ee
.	.	16A	16ff
=26	=26	=26	=26
4D	1r	16F	16dd
.	.	16d	16bb-
.	.	16c	16aa
.	.	16d	16bb-
8r	.	16B-	16gg
.	.	16c	16aa
8D	.	16A	16ff
.	.	16B-	16gg
4E	.	16G	16ee
.	.	16e	16ccc
.	.	16d	16bb-
.	.	16e	16ccc
8r	.	16c	16aa
.	.	16d	16bb-
8E	.	16B-	16gg
.	.	16c	16aa
=27	=27	=27	=27
8F	1r	8a	16ff
.	.	.	16ee-
8AA	.	8f	16dd
.	.	.	16cc
8BB-	.	16b-	16dd
.	.	16a	16cc
8D	.	16g	16b-
.	.	16f	16a
4GG	.	16g	16b-
.	.	16b-	16dd
.	.	16g	16b-
.	.	16f	16a
8r	.	16e	16g
.	.	16g	16b-
[8BB-	.	16e	16g
.	.	16d	16f
=28	=28	=28	=28
8BB-]	2r	16c	16e
.	.	16d	16f
8AA	.	16e	16g
.	.	16f	16a
8GG	.	8g	16b-
.	.	.	16dd
8C	.	8e	16cc
.	.	.	16b-
4FF	16r	4f	4a
.	16c	.	.
.	16B-	.	.
.	16c	.	.
4r	16A	4r	8cc
.	16c	.	.
.	16G	.	8b-
.	16c	.	.
=29	=29	=29	=29
1r	16F	1r	8a
.	16c	.	.
.	16E	.	8g
.	16c	.	.
.	16F	.	8a
.	16c	.	.
.	16G	.	8b-
.	16c	.	.
.	16A	.	8cc
.	16c	.	.
.	16C	.	8e
.	16c	.	.
.	16D	.	8f
.	16c	.	.
.	16E	.	8g
.	16c	.	.
=30	=30	=30	=30
1r	16F	2r	8a
.	16c	.	.
.	16E	.	8g
.	16c	.	.
.	16F	.	8a
.	16c	.	.
.	16G	.	8b-
.	16c	.	.
.	4A	4r	16cc
.	.	.	16b-
.	.	.	16a
.	.	.	16g
.	4r	16r	16f
.	.	16e-	8.r
.	.	16d	.
.	.	16c	.
=31	=31	=31	=31
1r	1r	8B-	16dd
.	.	.	16cc
.	.	8r	16b-
.	.	.	16a
.	.	16r	16g
.	.	16f	8.r
.	.	16e	.
.	.	16d	.
.	.	8c	16ee
.	.	.	16dd
.	.	8r	16cc
.	.	.	16b-
.	.	16r	16a
.	.	16g	8.r
.	.	16f	.
.	.	16e	.
=32	=32	=32	=32
1r	1r	8d	16ff
.	.	.	16ee
.	.	8r	16dd
.	.	.	16cc
.	.	16r	16b-
.	.	16a	8.r
.	.	16g	.
.	.	16f	.
.	.	8e	16gg
.	.	.	16ff
.	.	8r	16ee
.	.	.	16dd
.	.	16r	16cc
.	.	16b-	8.r
.	.	16a	.
.	.	16g	.
=33	=33	=33	=33
1r	1r	8f	16aa
.	.	.	16ff
.	.	8r	16ee
.	.	.	16ff
.	.	8cc	16cc
.	.	.	16ff
.	.	8r	16ee
.	.	.	16ff
.	.	8f	16aa
.	.	.	16ff
.	.	8r	16ee
.	.	.	16ff
.	.	8cc	16cc
.	.	.	16ff
.	.	8r	16ee
.	.	.	16ff
=34	=34	=34	=34
1r	1r	8e	16gg
.	.	.	16ee
.	.	8r	16dd
.	.	.	16ee
.	.	8cc	16cc
.	.	.	16ee
.	.	8r	16dd
.	.	.	16ee
.	.	8e	16gg
.	.	.	16ee
.	.	8r	16dd
.	.	.	16ee
.	.	8cc	16cc
.	.	.	16ee
.	.	8r	16dd
.	.	.	16ee
=35	=35	=35	=35
1r	1r	8f	16aa
.	.	.	16ff
.	.	8r	16ee
.	.	.	16ff
.	.	8cc	16cc
.	.	.	16ff
.	.	8r	16ee
.	.	.	16ff
.	.	8f	16aa
.	.	.	16ff
.	.	8r	16ee
.	.	.	16ff
.	.	8cc	16cc
.	.	.	16ff
.	.	8r	16ee
.	.	.	16ff
=36	=36	=36	=36
1r	1r	8e	16gg
.	.	.	16ee
.	.	8r	16dd
.	.	.	16ee
.	.	8cc	16cc
.	.	.	16ee
.	.	8r	16dd
.	.	.	16ee
.	.	8e	16gg
.	.	.	16ee
.	.	8r	16dd
.	.	.	16ee
.	.	8cc	16cc
.	.	.	16ee
.	.	8r	16dd
.	.	.	16ee
=37	=37	=37	=37
1r	1r	8d	16ff
.	.	.	16gg
.	.	8r	16ff
.	.	.	16ee
.	.	16r	16dd
.	.	16cc	8.r
.	.	16b	.
.	.	16a	.
.	.	16b	4r
.	.	16g	.
.	.	16b	.
.	.	16dd	.
.	.	4r	16ff
.	.	.	16aa
.	.	.	16ff
.	.	.	16dd
=38	=38	=38	=38
1r	1r	16b	4r
.	.	16g	.
.	.	16b	.
.	.	16dd	.
.	.	4r	16ff
.	.	.	16aa
.	.	.	16ff
.	.	.	16dd
.	.	16b-	4r
.	.	16g	.
.	.	16b-	.
.	.	16cc	.
.	.	4r	16ee
.	.	.	16gg
.	.	.	16ee
.	.	.	16cc
=39	=39	=39	=39
1r	1r	16b-	4r
.	.	16g	.
.	.	16b-	.
.	.	16cc	.
.	.	4r	16ee
.	.	.	16gg
.	.	.	16ee
.	.	.	16cc
.	.	16a	4r
.	.	16f	.
.	.	16a	.
.	.	16cc	.
.	.	4r	16dd
.	.	.	16ff
.	.	.	16dd
.	.	.	16b-
=40	=40	=40	=40
1r	1r	16a	4r
.	.	16f	.
.	.	16a	.
.	.	16cc	.
.	.	4r	16dd
.	.	.	16ff
.	.	.	16dd
.	.	.	16b-
.	.	16g	4r
.	.	16e	.
.	.	16g	.
.	.	16b-	.
.	.	4r	16cc#
.	.	.	16ee
.	.	.	16cc#
.	.	.	16a
=41	=41	=41	=41
1r	1r	16g	4r
.	.	16e	.
.	.	16g	.
.	.	16b-	.
.	.	4r	16cc#
.	.	.	16ee
.	.	.	16cc#
.	.	.	16b-
.	.	8a	16r
.	.	.	16aa
.	.	8cc#	16gg
.	.	.	16aa
.	.	8dd	16ff
.	.	.	16aa
.	.	8g	16ee
.	.	.	16aa
=42	=42	=42	=42
1r	1r	8f	16dd
.	.	.	16aa
.	.	8a	16cc#
.	.	.	16aa
.	.	8b	16dd
.	.	.	16aa
.	.	8cc#	16ee
.	.	.	16aa
.	.	8dd	16ff
.	.	.	16aa
.	.	8cc#	16a
.	.	.	16aa
.	.	8dd	16b
.	.	.	16aa
.	.	8ee	16cc#
.	.	.	16aa
=43	=43	=43	=43
1r	4r	8ff	16dd
.	.	.	16aa
.	.	8ee	16cc#
.	.	.	16aa
.	16r	8ff	8dd
.	16a	.	.
.	16g	8cc#	8ee
.	16a	.	.
.	16r	8dd	8dd
.	16f#	.	.
.	16e	8a	8cc
.	16f#	.	.
.	16r	8g	8b-
.	16d	.	.
.	16c	8f#	8a
.	16d	.	.
=44	=44	=44	=44
1r	16B-	8g	16b-
.	16c	.	16a
.	16B-	8r	16g
.	16A	.	16f
.	16G	2r	16e
.	16F	.	16d
.	16E	.	16c#
.	16D	.	16B
.	16C#	.	16A
.	16AA	.	8.r
.	16C#	.	.
.	16E	.	.
.	4r	16G	4r
.	.	16B-	.
.	.	16G	.
.	.	16E	.
=45	=45	=45	=45
1r	16C#	4r	1r
.	16AA	.	.
.	16C#	.	.
.	16E	.	.
.	4r	16G	.
.	.	16B-	.
.	.	16G	.
.	.	16E	.
.	16D	4r	.
.	16AA	.	.
.	16D	.	.
.	16F	.	.
.	4r	16A	.
.	.	16d	.
.	.	16A	.
.	.	16F	.
=46	=46	=46	=46
1r	16D	4r	1r
.	16AA	.	.
.	16D	.	.
.	16F	.	.
.	4r	16A	.
.	.	16d	.
.	.	16A	.
.	.	16F	.
.	16C#	4r	.
.	16AA	.	.
.	16C#	.	.
.	16E	.	.
.	4r	16G	.
.	.	16B-	.
.	.	16G	.
.	.	16E	.
=47	=47	=47	=47
1r	16C#	4r	1r
.	16AA	.	.
.	16C#	.	.
.	16E	.	.
.	4r	16G	.
.	.	16B-	.
.	.	16G	.
.	.	16E	.
.	16D	4r	.
.	16AA	.	.
.	16D	.	.
.	16F	.	.
.	4r	16A	.
.	.	16d	.
.	.	16A	.
.	.	16F	.
=48	=48	=48	=48
1r	16D	4r	1r
.	16AA	.	.
.	16D	.	.
.	16F	.	.
.	4r	16A	.
.	.	16d	.
.	.	16A	.
.	.	16F	.
.	16E	4r	.
.	16C#	.	.
.	16E	.	.
.	16G	.	.
.	4r	16B-	.
.	.	16c#	.
.	.	16B-	.
.	.	16G	.
=49	=49	=49	=49
1r	16E	4r	1r
.	16C#	.	.
.	16E	.	.
.	16G	.	.
.	4r	16B-	.
.	.	16c#	.
.	.	16B-	.
.	.	16G	.
.	16F	4r	.
.	16D	.	.
.	16F	.	.
.	16A	.	.
.	4r	16d	.
.	.	16f	.
.	.	16d	.
.	.	16A	.
=50	=50	=50	=50
1r	16F	4r	1r
.	16D	.	.
.	16F	.	.
.	16A	.	.
.	4r	16d	.
.	.	16f	.
.	.	16d	.
.	.	16A	.
.	16E	4r	.
.	16C#	.	.
.	16E	.	.
.	16G	.	.
.	4r	16B-	.
.	.	16c#	.
.	.	16B-	.
.	.	16G	.
=51	=51	=51	=51
1r	16E	4r	1r
.	16C#	.	.
.	16E	.	.
.	16G	.	.
.	4r	16B-	.
.	.	16c#	.
.	.	16B-	.
.	.	16G	.
.	16F	4r	.
.	16D	.	.
.	16F	.	.
.	16A	.	.
.	4r	16d	.
.	.	16f	.
.	.	16d	.
.	.	16A	.
=52	=52	=52	=52
1r	16F	4r	1r
.	16D	.	.
.	16F	.	.
.	16A	.	.
.	4r	16d	.
.	.	16f	.
.	.	16d	.
.	.	16A	.
.	16G	4r	.
.	16E	.	.
.	16G	.	.
.	16B-	.	.
.	4r	16c#	.
.	.	16e	.
.	.	16c#	.
.	.	16B-	.
=53	=53	=53	=53
1r	16G	4r	1r
.	16E	.	.
.	16G	.	.
.	16B-	.	.
.	4r	16c#	.
.	.	16e	.
.	.	16c#	.
.	.	16B-	.
.	16A	4r	.
.	16F	.	.
.	16A	.	.
.	16c#	.	.
.	8.r	16d	.
.	.	16f	.
.	.	16d	.
.	16A	16r	.
=54	=54	=54	=54
1r	16B-	16r	1r
.	16r	16d	.
.	16r	16B-	.
.	16G	16r	.
.	16F	16r	.
.	16r	16A	.
.	16r	16F	.
.	16D	16r	.
.	16AA	16r	.
.	16r	16D	.
.	16r	16AA	.
.	16FF	16r	.
.	16DD	16r	.
.	8.r	16D	.
.	.	16C#	.
.	.	16BB	.
=55	=55	=55	=55
1r	16C#	16r	1r
.	8.r	16B-	.
.	.	16A	.
.	.	16G	.
.	16F	16r	.
.	8.r	16G	.
.	.	16F	.
.	.	16E	.
.	16D	16r	.
.	8.r	16B-	.
.	.	16A	.
.	.	16G	.
.	16F	16r	.
.	8.r	16G	.
.	.	16F	.
.	.	16E	.
=56	=56	=56	=56
1r	16D	4r	2r
.	32E	.	.
.	32F	.	.
.	32G	.	.
.	32A	.	.
.	32B	.	.
.	32c#	.	.
.	16d	16r	.
.	8.r	16f	.
.	.	16e	.
.	.	16d	.
.	16A	16a	4r
.	32B	8.r	.
.	32c#	.	.
.	32d	.	.
.	32e	.	.
.	32f	.	.
.	32g	.	.
.	16a	4r	16r
.	16g	.	16ee
.	16f	.	16dd
.	16e	.	16cc#
=57	=57	=57	=57
2r	8f	1r	16dd
.	.	.	32ee-
.	.	.	32dd
.	8r	.	32cc
.	.	.	32b-
.	.	.	32a
.	.	.	32g
.	16r	.	8f#
.	16e-	.	.
.	16d	.	[8a
.	16c	.	.
16r	8B-	.	8a]
16G	.	.	.
16F	8B	.	8g
16G	.	.	.
16E-	8c	.	8cc
16G	.	.	.
16D	8g	.	8b
16G	.	.	.
=58	=58	=58	=58
16C	[1g	1r	8ee-
16G	.	.	.
16BB	.	.	8dd
16G	.	.	.
16C	.	.	8ee-
16G	.	.	.
16D	.	.	8b
16G	.	.	.
16E-	.	.	8cc
16G	.	.	.
16GG	.	.	8b
16G	.	.	.
16AA	.	.	8cc
16G	.	.	.
16BB	.	.	8dd
16G	.	.	.
=59	=59	=59	=59
16C	2g_	1r	8ee-
16G	.	.	.
16BB	.	.	8dd
16G	.	.	.
16C	.	.	8ee-
16G	.	.	.
16D	.	.	8ff
16G	.	.	.
8E-	16g]	.	[2gg
.	16g	.	.
8D	16f	.	.
.	16g	.	.
8C	16e-	.	.
.	16g	.	.
8BB	16d	.	.
.	16g	.	.
=60	=60	=60	=60
8C	16c	1r	1gg_
.	16g	.	.
8D	16B	.	.
.	16g	.	.
8E-	16c	.	.
.	16g	.	.
8F	16d	.	.
.	16g	.	.
8G	16e-	.	.
.	16g	.	.
8BB	16G	.	.
.	16g	.	.
8C	16A	.	.
.	16g	.	.
8D	16B	.	.
.	16g	.	.
=61	=61	=61	=61
8E-	16c	1r	2gg_
.	16g	.	.
8D	16B	.	.
.	16g	.	.
8E-	16c	.	.
.	16g	.	.
8F	16d	.	.
.	16g	.	.
8G	8e-	.	16gg]
.	.	.	16gg
8BB	8d	.	16ff
.	.	.	16gg
8C	16g	.	16ee-
.	16a-	.	16ff
8D	16f	.	16dd
.	16g	.	16ee-
=62	=62	=62	=62
8E-	8e-	1r	16cc
.	.	.	16ff
8AA	8c	.	16ee-
.	.	.	16ff
8BB-	16f	.	16dd
.	16g	.	16ee-
8C	16e-	.	16cc
.	16f	.	16dd
8D	8d	.	16b-
.	.	.	16ee-
8GG	8B-	.	16dd
.	.	.	16ee-
8AA	16e-	.	16cc
.	16f	.	16dd
8BB-	16d	.	16b-
.	16e-	.	16cc
=63	=63	=63	=63
8C	8c	1r	16a
.	.	.	16dd
8D	8f#	.	16cc
.	.	.	16dd
8G	16g	.	16b-
.	16a	.	16cc
8D	16f	.	16a
.	16g	.	16b-
8E-	16e-	.	16g
.	16g	.	16b-
8BB-	16f#	.	16a
.	16g	.	16b-
8AA	16a	.	16cc
.	16g	.	16b-
8C	16f#	.	16a
.	16e	.	16g
=64	=64	=64	=64
[1D	16r	1r	8f#
.	16d	.	.
.	16c	.	8a
.	16d	.	.
.	16B-	.	16dd
.	16d	.	16g
.	16A	.	16cc
.	16d	.	16f#
.	16G	.	16b-
.	16d	.	16g
.	16F#	.	16dd
.	16d	.	16a
.	16G	.	16b-
.	16d	.	16g
.	16A	.	16a
.	16d	.	16f#
=65	=65	=65	=65
1D_	16B-	1r	16g
.	16d	.	16dd
.	16D	.	16f#
.	16d	.	16dd
.	16E	.	16g
.	16d	.	16dd
.	16F#	.	16a
.	16d	.	16dd
.	16G	.	16b-
.	16d	.	16g
.	16F#	.	16dd
.	16d	.	16a
.	16G	.	16b-
.	16d	.	16g
.	16A	.	16cc
.	16d	.	16a
=66	=66	=66	=66
4D]	8B-	1r	16dd
.	.	.	16cc
.	8A	.	16b-
.	.	.	16a
8r	2G	.	16b-
.	.	.	16a
8GG	.	.	16b-
.	.	.	16g
8C	.	.	16a
.	.	.	16b-
8AA	.	.	16cc
.	.	.	16dd
8D	4F#	.	16ee-
.	.	.	16dd
8DD	.	.	16cc
.	.	.	16dd
=67	=67	=67	=67
4GG	8G	1r	16b-
.	.	.	16cc
.	8A	.	16a
.	.	.	16b-
8r	16B-	.	8g
.	16A	.	.
8GG	16G	.	8b
.	16F	.	.
4.C	8E-	.	16cc
.	.	.	16ee-
.	8e-	.	16ff
.	.	.	16gg
.	4d	.	16aa-
.	.	.	16gg
8BB	.	.	16ff
.	.	.	16gg
=68	=68	=68	=68
4C	8c	1r	16ee-
.	.	.	16ff
.	8d	.	16dd
.	.	.	16ee-
4r	16e-	.	8cc
.	16f	.	.
.	16d	.	8b-
.	16e-	.	.
2r	16c	.	8a
.	16e-	.	.
.	16d	.	[8b-
.	16f	.	.
.	16g	.	8b-]
.	16f	.	.
.	16e-	.	[8a
.	16f	.	.
=69	=69	=69	=69
1r	16d	1r	8a]
.	16B-	.	.
.	16e-	.	[8g
.	16d	.	.
.	16c#	.	8g]
.	16A	.	.
.	16d	.	8f#
.	16c	.	.
.	16B	.	8f
.	16G	.	.
.	16c	.	[8e-
.	16B-	.	.
.	16A	.	8e-]
.	16F	.	.
.	16B-	.	16d
.	16d	.	16b-
=70	=70	=70	=70
1r	16c	1r	16a
.	16d	.	16b-
.	16c	.	16a
.	16B-	.	16g
.	16A	.	16f#
.	16c	.	16ee-
.	16B-	.	16dd
.	16A	.	16cc
.	16G	.	16b-
.	16c	.	16aa
.	16B-	.	16gg
.	16A	.	16ff#
.	16B-	.	8.gg
.	16c	.	.
.	16B-	.	.
.	16A	.	16ff
=71	=71	=71	=71
1r	16G	4r	16ee-
.	16A	.	16ff
.	16F	.	16dd
.	16G	.	16ee-
.	4E	16r	4cc#
.	.	16b-	.
.	.	16a	.
.	.	16g	.
.	4F#	16r	4dd 4a
.	.	16e-	.
.	.	16d	.
.	.	16c	.
.	4D	16d	4cc 4f#
.	.	16c	.
.	.	16B-	.
.	.	16A	.
=72	=72	=72	=72
1r	4G	16g	4b-
.	.	16f	.
.	.	16e-	.
.	.	16d	.
.	16A	8c#	8a
.	16B-	.	.
.	16A	8e	8cc#
.	16G	.	.
.	16F	8f	8dd
.	16G	.	.
.	16E	8g	8ee
.	16A	.	.
.	16a	8r	4ff
.	16g	.	.
.	16a	[8dd	.
.	16f	.	.
=73	=73	=73	=73
1r	16g	4dd]	2ee
.	16a	.	.
.	16g	.	.
.	16a	.	.
.	16b-	4cc#	.
.	16a	.	.
.	16g	.	.
.	16a	.	.
.	16f	16a	4.dd
.	16g	16b-	.
.	16e	16g	.
.	16f	16a	.
.	16d	8f	.
.	16c	.	.
.	16B-	8a	8ff
.	16A	.	.
=74	=74	=74	=74
1r	16B-	8g	8gg
.	16A	.	.
.	16G	8a	8dd
.	16F	.	.
.	16E	8g	8cc#
.	16F	.	.
.	16E	8f	8dd
.	16D	.	.
.	16C#	8g	8ee
.	16AA	.	.
.	16D	8f	8dd
.	16AA	.	.
.	16E	8e	8cc#
.	16AA	.	.
.	16F	8a	8dd
.	16AA	.	.
=75	=75	=75	=75
1r	16G	8b-	8ee
.	16AA	.	.
.	16F	8a	8dd
.	16AA	.	.
.	16E	8g	8cc#
.	16AA	.	.
.	16D	8f	8dd
.	16AA	.	.
.	16C#	8a	8ee
.	16A	.	.
.	16AA	8ee	8gg
.	16A	.	.
.	16D	8dd	8ff
.	16A	.	.
.	16F	8a	8dd
.	16d	.	.
=76	=76	=76	=76
1r	16G	8g	8b-
.	16d	.	.
.	16E	8g	8ee
.	16c#	.	.
.	16F	8a	8dd
.	16d	.	.
.	16D	8f	8dd
.	16d	.	.
.	[2A	16e	4cc#
.	.	16a	.
.	.	16g	.
.	.	16a	.
.	.	16f	8dd
.	.	16a	.
.	.	16e	8ee
.	.	16a	.
=77	=77	=77	=77
1r	1A_	16d	8ff
.	.	16a	.
.	.	16c#	8ee
.	.	16a	.
.	.	16d	8ff
.	.	16a	.
.	.	16e	8cc#
.	.	16a	.
.	.	16f	8dd
.	.	16a	.
.	.	16A	8cc#
.	.	16a	.
.	.	16B	8dd
.	.	16a	.
.	.	16c#	8ee
.	.	16a	.
=78	=78	=78	=78
1r	1A_	16d	8ff
.	.	16a	.
.	.	16c#	8ee
.	.	16a	.
.	.	16d	8ff
.	.	16a	.
.	.	16e	8gg
.	.	16a	.
.	.	8f	16aa
.	.	.	16bb-
.	.	8e	16gg
.	.	.	16aa
.	.	8d	16ff
.	.	.	16gg
.	.	8g	16ee
.	.	.	16ff
=79	=79	=79	=79
1r	1A_	8f	16dd
.	.	.	16a
.	.	8e	16cc#
.	.	.	16a
.	.	8f	16dd
.	.	.	16a
.	.	8c#	16ee
.	.	.	16a
.	.	8d	16ff
.	.	.	16a
.	.	8c#	16ee
.	.	.	16a
.	.	8d	16ff
.	.	.	16a
.	.	8B	16gg
.	.	.	16a
=80	=80	=80	=80
2r	2A_	8c#	16aa
.	.	.	16a
.	.	8g	16ee
.	.	.	16a
.	.	8f	16ff
.	.	.	16a
.	.	8d	16gg
.	.	.	16a
16r	4A]	4c#	4aa
16A	.	.	.
16G	.	.	.
16A	.	.	.
16F	4r	4r	4r
16A	.	.	.
16E	.	.	.
16A	.	.	.
=81	=81	=81	=81
16D	1r	1r	1r
16A	.	.	.
16C#	.	.	.
16A	.	.	.
16D	.	.	.
16A	.	.	.
16E	.	.	.
16A	.	.	.
16F	.	.	.
16A	.	.	.
16AA	.	.	.
16A	.	.	.
16BB	.	.	.
16A	.	.	.
16C#	.	.	.
16A	.	.	.
=82	=82	=82	=82
16D	2r	1r	2r
16A	.	.	.
16C#	.	.	.
16A	.	.	.
16D	.	.	.
16A	.	.	.
16E	.	.	.
16A	.	.	.
4F	16r	.	16r
.	16g	.	16ee
.	16f	.	16dd
.	16e	.	16cc#
8r	16f	.	8dd
.	16c#	.	.
8F	[8d	.	16r
.	.	.	16ff
=83	=83	=83	=83
8G	4d]	1r	16ee
.	.	.	16ff
8E	.	.	16gg
.	.	.	16aa
8A	4c#	.	16bb-
.	.	.	16aa
8AA	.	.	16gg
.	.	.	16aa
4D	16d	.	8ff
.	16a	.	.
.	16b	.	8ee
.	16cc#	.	.
8r	8dd	.	16dd
.	.	.	16ee
8AA	8cc	.	16ff
.	.	.	16ee-
=84	=84	=84	=84
8BB-	4.f	1r	16dd
.	.	.	16cc
8GG	.	.	16b-
.	.	.	16a
8C	.	.	16g
.	.	.	16a
8CC	[8e-	.	16b-
.	.	.	16cc
4FF	16e-]	.	4a
.	16c	.	.
.	16A	.	.
.	16F	.	.
8r	16A	.	8r
.	16c	.	.
8AA	16e-	.	[8cc
.	16c	.	.
=85	=85	=85	=85
4BB-	16d	1r	8cc]
.	16B-	.	.
.	16G	.	8b-
.	16D	.	.
8r	16G	.	8r
.	16B-	.	.
8BB-	16d	.	8gg
.	16g	.	.
4C	16c	.	16ee-
.	16d	.	16ff
.	16B-	.	16dd
.	16c	.	16ee-
8r	16A	.	16cc
.	16G	.	16b-
8AA	16F#	.	16a
.	16E	.	16g
=86	=86	=86	=86
4D	16F#	4r	4a
.	16D	.	.
.	16F#	.	.
.	16G	.	.
4r	4r	16A	4r
.	.	16d	.
.	.	16A	.
.	.	16G	.
4D	16F#	4r	2r
.	16D	.	.
.	16F#	.	.
.	16G	.	.
4r	4r	16A	.
.	.	16d	.
.	.	16A	.
.	.	16F#	.
=87	=87	=87	=87
4D	16G	4r	1r
.	16D	.	.
.	16G	.	.
.	16A	.	.
4r	4r	16B-	.
.	.	16d	.
.	.	16B-	.
.	.	16A	.
4D	16G	4r	.
.	16D	.	.
.	16G	.	.
.	16A	.	.
4r	4r	16B-	.
.	.	16d	.
.	.	16c	.
.	.	16B-	.
=88	=88	=88	=88
4D	16A	4r	1r
.	16F#	.	.
.	16A	.	.
.	16B-	.	.
4r	4r	16c	.
.	.	16e-	.
.	.	16c	.
.	.	16B-	.
4D	16A	4r	.
.	16F#	.	.
.	16A	.	.
.	16B-	.	.
4r	4r	16c	.
.	.	16e-	.
.	.	16c	.
.	.	16B-	.
=89	=89	=89	=89
4D	16A	4r	1r
.	16B-	.	.
.	16d	.	.
.	16f#	.	.
4r	4r	16g	.
.	.	16b-	.
.	.	16g	.
.	.	16d	.
4D	16B-	4r	.
.	16G	.	.
.	16B-	.	.
.	16d	.	.
4r	4r	16g	.
.	.	16b-	.
.	.	16g	.
.	.	16d	.
=90	=90	=90	=90
4D	16c	4r	1r
.	16A	.	.
.	16c	.	.
.	16e-	.	.
4r	4r	16f#	.
.	.	16a	.
.	.	16f#	.
.	.	16e-	.
4D	16c	4r	.
.	16A	.	.
.	16c	.	.
.	16e-	.	.
4r	4r	16f#	.
.	.	16a	.
.	.	16f#	.
.	.	16e-	.
=91	=91	=91	=91
16r	8F#	8d	4r
16D	.	.	.
16C	8r	8r	.
16D	.	.	.
16BB-	8G	8g	8dd
16D	.	.	.
16AA	8A	8f#	8cc
16D	.	.	.
16GG	4B-	4g	4b-
16G	.	.	.
16F	.	.	.
16G	.	.	.
16E-	8e-	8g	8cc
16G	.	.	.
16D	8B	8b	8dd
16G	.	.	.
=92	=92	=92	=92
16C	4G	4cc	4ee-
16C	.	.	.
16BB-	.	.	.
16C	.	.	.
16AA	8c	8cc	8ff
16C	.	.	.
16GG	8B-	8ee	8gg
16C	.	.	.
16FF	4A	4ff	4aa
16F	.	.	.
16E-	.	.	.
16F	.	.	.
16D	8B-	8b-	8ff
16F	.	.	.
16C	8c	8a	8ee-
16F	.	.	.
=93	=93	=93	=93
8BB-	16d	8b-	16dd
.	16g	.	16ee-
8E-	16f	8r	16dd
.	16e-	.	16cc
8F	16d	2.r	16b-
.	16e-	.	16cc
8FF	16d	.	16b-
.	16c	.	16a
8GG	16B-	.	16g
.	16e-	.	16cc
8C	16d	.	16b-
.	16c	.	16a
8D	16B-	.	16g
.	16c	.	16a
8DD	16B-	.	16g
.	16A	.	16f#
=94	=94	=94	=94
4GG	16B-	1r	16g
.	16A	.	16f
.	16G	.	16e
.	16F	.	16d
16r	8E	.	8c#
16AA	.	.	.
16GG	8G	.	8e
16AA	.	.	.
8FF	16A	.	16f
.	16B	.	16g
8DD	16c#	.	16a
.	16d	.	16b
4AA	16e	.	16cc#
.	16f	.	16dd
.	16g	.	16ee
.	16a	.	16ff
=95	=95	=95	=95
[1DD	8b-	1r	8gg
.	16a	.	16ff
.	16g	.	16ee
.	16f	.	8dd
.	16a	.	.
.	16e	.	8cc#
.	16a	.	.
.	16d	.	8dd
.	16a	.	.
.	16c#	.	8ee
.	16a	.	.
.	16d	.	8ff
.	16a	.	.
.	16e	.	8gg
.	16a	.	.
=96	=96	=96	=96
2DD]	16f	1r	8aa
.	16a	.	.
.	16A	.	8cc#
.	16a	.	.
.	16B	.	8dd
.	16a	.	.
.	16c#	.	8ee
.	16a	.	.
4r	16d	.	8ff
.	16a	.	.
.	16c#	.	8ee
.	16a	.	.
8r	16d	.	8ff
.	16a	.	.
8D	16B	.	8dd
.	16a	.	.
=97	=97	=97	=97
8AA	8c#	8r	8ee
8FF	8d	8a	8dd
8GG	8g	8b-	8dd
8AA	8e	8a	8cc#
8FF	8f	8a	8dd
8DD	8a	8dd	8ff
8GG	8b-	8dd	4ee
8AA	8a	8cc	.
=98	=98	=98	=98
2BB-	2F 2B- 2d	2f	2dd 2b-
2r	2r	2r	2r
==	==	==	==
*-	*-	*-	*-
